src/lib/Icons/firebase.svg

<svg fill="none" height="41" viewBox="0 0 30 41" width="30" xmlns="http://www.w3.org/2000/svg"><path d="m19.5251 14.4474-4.0037 3.725-3.715-7.4937 1.9225-4.31001c.5-.875 1.28-.865 1.7675 0z" fill="#ffa000"/><path d="m11.8063 10.6788 3.715 7.4938-14.962462 13.9187z" fill="#f57f17"/><path d="m23.9038 8.75373c.715-.6875 1.455-.4525 1.6438.52125l3.895 22.63122-12.91 7.75c-.45.25-1.65.3575-1.65.3575s-1.0925-.13-1.5088-.375l-12.814962-7.5475z" fill="#ffca28"/><path d="m11.8063 10.6788-11.246241 21.4125 5.008751-31.293764c.185-.975.74-1.06875 1.235-.20875z" fill="#ffa000"/></svg>

<svg width="30" height="41" viewBox="0 0 30 41" fill="none" xmlns="http://www.w3.org/2000/svg">
<path d="M19.5251 14.4474L15.5214 18.1724L11.8064 10.6787L13.7289 6.36869C14.2289 5.49369 15.0089 5.50369 15.4964 6.36869L19.5251 14.4474Z" fill="#FFA000"/>
<path d="M11.8063 10.6788L15.5213 18.1726L0.558838 32.0913L11.8063 10.6788Z" fill="#F57F17"/>
<path d="M23.9038 8.75373C24.6188 8.06623 25.3588 8.30123 25.5476 9.27498L29.4426 31.9062L16.5326 39.6562C16.0826 39.9062 14.8826 40.0137 14.8826 40.0137C14.8826 40.0137 13.7901 39.8837 13.3738 39.6387L0.558838 32.0912L23.9038 8.75373Z" fill="#FFCA28"/>
<path d="M11.8063 10.6788L0.560059 32.0913L5.56881 0.797536C5.75381 -0.177464 6.30881 -0.271214 6.80381 0.588786L11.8063 10.6788Z" fill="#FFA000"/>
</svg>
